src/assets/images/beat-boxer/OBSTACLE_BOTTOM.svg

<svg width="197" height="431" viewBox="0 0 197 431" fill="none" xmlns="http://www.w3.org/2000/svg">
<g clip-path="url(#clip0_9279_207081)">
<path d="M166.53 44.54H29.5C21.4919 44.54 15 51.0319 15 59.04V169.4C15 177.408 21.4919 183.9 29.5 183.9H166.53C174.538 183.9 181.03 177.408 181.03 169.4V59.04C181.03 51.0319 174.538 44.54 166.53 44.54Z" fill="white"/>
<path d="M166.53 29.54H105.52V7.5C105.52 3.36 102.16 0 98.02 0C93.88 0 90.52 3.36 90.52 7.5V29.54H29.5C13.23 29.54 0 42.77 0 59.04V169.4C0 185.67 13.23 198.9 29.5 198.9H90.51V423.25C90.51 427.39 93.87 430.75 98.01 430.75C102.15 430.75 105.51 427.39 105.51 423.25V198.9H166.52C182.79 198.9 196.02 185.67 196.02 169.4V59.04C196.02 42.77 182.79 29.54 166.52 29.54H166.53ZM181.03 169.4C181.03 177.4 174.53 183.9 166.53 183.9H29.5C21.5 183.9 15 177.4 15 169.4V59.04C15 51.04 21.5 44.54 29.5 44.54H166.53C174.53 44.54 181.03 51.04 181.03 59.04V169.4Z" fill="#FFC440"/>
<path d="M149.51 89.78L122.45 62.72C121.04 61.31 119.14 60.52 117.15 60.52H78.8803C76.8903 60.52 74.9803 61.31 73.5803 62.72L46.5203 89.78C45.1103 91.19 44.3203 93.09 44.3203 95.08V133.35C44.3203 135.34 45.1103 137.25 46.5203 138.65L73.5803 165.71C74.9903 167.12 76.8903 167.91 78.8803 167.91H117.15C119.14 167.91 121.05 167.12 122.45 165.71L149.51 138.65C150.92 137.24 151.71 135.34 151.71 133.35V95.08C151.71 93.09 150.92 91.18 149.51 89.78Z" fill="#FFC440"/>
<path d="M108.62 114.22L120.66 102.17C123.59 99.2398 123.59 94.4898 120.66 91.5598C117.73 88.6298 112.98 88.6298 110.05 91.5598L98.0096 103.6L85.9696 91.5598C83.0396 88.6298 78.2896 88.6298 75.3596 91.5598C72.4296 94.4898 72.4296 99.2398 75.3596 102.17L87.3996 114.22L75.3596 126.27C72.4296 129.2 72.4296 133.95 75.3596 136.88C76.8196 138.34 78.7396 139.08 80.6596 139.08C82.5796 139.08 84.4996 138.35 85.9596 136.88L97.9996 124.84L110.04 136.88C111.5 138.34 113.42 139.08 115.34 139.08C117.26 139.08 119.18 138.35 120.64 136.88C123.57 133.95 123.57 129.2 120.64 126.27L108.6 114.22H108.62Z" fill="#000066"/>
</g>
<defs>
<clipPath id="clip0_9279_207081">
<rect width="196.03" height="430.74" fill="white"/>
</clipPath>
</defs>
</svg>

<?xml version="1.0" encoding="UTF-8"?><svg id="Layer_2" xmlns="http://www.w3.org/2000/svg" viewBox="0 0 196.03 430.74"><defs><style>.cls-1{fill:none;}.cls-2{fill:#007f6f;}.cls-3{fill:#fff;}</style></defs><g id="Layer_1-2"><g><rect class="cls-3" x="15" y="44.54" width="166.03" height="139.36" rx="14.5" ry="14.5"/><g><path class="cls-1" d="M166.53,44.54H29.5c-8,0-14.5,6.5-14.5,14.5v110.36c0,8,6.5,14.5,14.5,14.5H166.53c8,0,14.5-6.5,14.5-14.5V59.04c0-8-6.5-14.5-14.5-14.5Z"/><path class="cls-2" d="M166.53,29.54h-61.01V7.5c0-4.14-3.36-7.5-7.5-7.5s-7.5,3.36-7.5,7.5V29.54H29.5C13.23,29.54,0,42.77,0,59.04v110.36c0,16.27,13.23,29.5,29.5,29.5h61.01v224.35c0,4.14,3.36,7.5,7.5,7.5s7.5-3.36,7.5-7.5V198.9h61.01c16.27,0,29.5-13.23,29.5-29.5V59.04c0-16.27-13.23-29.5-29.5-29.5Zm14.5,139.86c0,8-6.5,14.5-14.5,14.5H29.5c-8,0-14.5-6.5-14.5-14.5V59.04c0-8,6.5-14.5,14.5-14.5H166.53c8,0,14.5,6.5,14.5,14.5v110.36Z"/></g><path class="cls-2" d="M149.51,89.78l-27.06-27.06c-1.41-1.41-3.31-2.2-5.3-2.2h-38.27c-1.99,0-3.9,.79-5.3,2.2l-27.06,27.06c-1.41,1.41-2.2,3.31-2.2,5.3v38.27c0,1.99,.79,3.9,2.2,5.3l27.06,27.06c1.41,1.41,3.31,2.2,5.3,2.2h38.27c1.99,0,3.9-.79,5.3-2.2l27.06-27.06c1.41-1.41,2.2-3.31,2.2-5.3v-38.27c0-1.99-.79-3.9-2.2-5.3Z"/><path class="cls-3" d="M108.62,114.22l12.04-12.05c2.93-2.93,2.93-7.68,0-10.61-2.93-2.93-7.68-2.93-10.61,0l-12.04,12.04-12.04-12.04c-2.93-2.93-7.68-2.93-10.61,0-2.93,2.93-2.93,7.68,0,10.61l12.04,12.05-12.04,12.05c-2.93,2.93-2.93,7.68,0,10.61,1.46,1.46,3.38,2.2,5.3,2.2s3.84-.73,5.3-2.2l12.04-12.04,12.04,12.04c1.46,1.46,3.38,2.2,5.3,2.2s3.84-.73,5.3-2.2c2.93-2.93,2.93-7.68,0-10.61l-12.04-12.05Z"/></g></g></svg>
